Numix-GalliumOS/64/mimetypes/application-x-lzop.svg

<svg xmlns="http://www.w3.org/2000/svg" xmlns:xlink="http://www.w3.org/1999/xlink" width="64px" height="64px" viewBox="0 0 64 64" version="1.1">
<g id="surface1">
<path style=" stroke:none;fill-rule:nonzero;fill:rgb(75.686275%,58.431373%,32.54902%);fill-opacity:1;" d="M 10.671875 0 C 9.296875 0 8 1.355469 8 2.789062 L 8 61.210938 C 8 62.566406 9.375 64 10.671875 64 L 53.328125 64 C 54.625 64 56 62.566406 56 61.210938 L 56 18 L 38 0 Z M 10.671875 0 "/>
<path style=" stroke:none;fill-rule:nonzero;fill:rgb(0%,0%,0%);fill-opacity:0.196078;" d="M 8 48 L 8 61.335938 C 8 62.632812 9.375 64 10.664062 64 L 53.335938 64 C 54.625 64 56 62.632812 56 61.335938 L 56 48 Z M 8 48 "/>
<path style=" stroke:none;fill-rule:nonzero;fill:rgb(0%,0%,0%);fill-opacity:0.196078;" d="M 42 18 L 56 32 L 56 18 Z M 42 18 "/>
<path style=" stroke:none;fill-rule:nonzero;fill:rgb(100%,100%,100%);fill-opacity:1;" d="M 22.546875 61.988281 L 16 61.988281 L 16 51.761719 L 18.085938 51.761719 L 18.085938 60.300781 L 22.546875 60.300781 L 22.546875 61.988281 "/>
<path style=" stroke:none;fill-rule:nonzero;fill:rgb(100%,100%,100%);fill-opacity:0.392157;" d="M 38 0 L 55.984375 18 L 40.757812 18 C 39.410156 18 38 16.574219 38 15.226562 Z M 38 0 "/>
<path style=" stroke:none;fill-rule:nonzero;fill:rgb(100%,100%,100%);fill-opacity:1;" d="M 30.710938 53.183594 C 30.226562 53.910156 29.789062 54.589844 29.382812 55.230469 C 28.976562 55.871094 28.601562 56.480469 28.257812 57.066406 C 27.90625 57.636719 27.578125 58.191406 27.257812 58.730469 C 26.960938 59.261719 26.664062 59.785156 26.382812 60.300781 L 30.867188 60.300781 L 30.867188 61.988281 L 23.992188 61.988281 L 23.992188 60.808594 C 24.242188 60.339844 24.507812 59.839844 24.789062 59.324219 C 25.070312 58.800781 25.382812 58.238281 25.726562 57.644531 C 26.078125 57.050781 26.453125 56.402344 26.859375 55.707031 C 27.273438 55.019531 27.726562 54.261719 28.21875 53.449219 L 24.210938 53.449219 L 24.210938 51.761719 L 30.710938 51.761719 L 30.710938 53.183594 "/>
<path style=" stroke:none;fill-rule:evenodd;fill:rgb(97.647059%,97.647059%,97.647059%);fill-opacity:1;" d="M 18 0 L 24 0 L 24 6 L 18 6 Z M 18 0 "/>
<path style=" stroke:none;fill-rule:nonzero;fill:rgb(100%,100%,100%);fill-opacity:1;" d="M 34.195312 56.863281 C 34.195312 57.363281 34.210938 57.832031 34.25 58.269531 C 34.289062 58.699219 34.367188 59.074219 34.484375 59.394531 C 34.609375 59.714844 34.773438 59.964844 34.984375 60.152344 C 35.203125 60.339844 35.484375 60.433594 35.84375 60.433594 C 36.195312 60.433594 36.476562 60.339844 36.6875 60.152344 C 36.914062 59.964844 37.078125 59.714844 37.195312 59.394531 C 37.3125 59.058594 37.398438 58.683594 37.429688 58.253906 C 37.476562 57.824219 37.492188 57.363281 37.492188 56.863281 C 37.492188 56.371094 37.476562 55.910156 37.429688 55.480469 C 37.398438 55.035156 37.3125 54.660156 37.195312 54.339844 C 37.078125 54.019531 36.914062 53.769531 36.703125 53.582031 C 36.492188 53.394531 36.203125 53.300781 35.84375 53.300781 C 35.484375 53.300781 35.203125 53.394531 34.984375 53.582031 C 34.773438 53.769531 34.609375 54.027344 34.484375 54.355469 C 34.367188 54.675781 34.289062 55.050781 34.25 55.480469 C 34.210938 55.910156 34.195312 56.371094 34.195312 56.863281 M 32.09375 56.863281 C 32.09375 55.105469 32.421875 53.777344 33.085938 52.886719 C 33.75 51.980469 34.664062 51.535156 35.84375 51.535156 C 37.070312 51.535156 38 51.980469 38.640625 52.886719 C 39.28125 53.777344 39.601562 55.105469 39.601562 56.863281 C 39.601562 58.628906 39.273438 59.957031 38.625 60.863281 C 37.976562 61.753906 37.054688 62.199219 35.859375 62.199219 C 34.640625 62.199219 33.703125 61.753906 33.054688 60.863281 C 32.414062 59.957031 32.09375 58.628906 32.09375 56.863281 "/>
<path style=" stroke:none;fill-rule:evenodd;fill:rgb(97.647059%,97.647059%,97.647059%);fill-opacity:1;" d="M 24 6 L 30 6 L 30 12 L 24 12 Z M 24 6 "/>
<path style=" stroke:none;fill-rule:nonzero;fill:rgb(100%,100%,100%);fill-opacity:1;" d="M 43.828125 51.644531 C 45.148438 51.644531 46.179688 51.917969 46.90625 52.457031 C 47.632812 52.988281 48 53.855469 48 55.066406 C 48 56.285156 47.632812 57.175781 46.890625 57.722656 C 46.15625 58.261719 45.125 58.535156 43.773438 58.535156 L 43.03125 58.535156 L 43.03125 61.988281 L 40.960938 61.988281 L 40.960938 51.894531 C 41.164062 51.855469 41.390625 51.816406 41.640625 51.777344 C 41.898438 51.746094 42.15625 51.722656 42.414062 51.714844 C 42.671875 51.691406 42.921875 51.675781 43.171875 51.667969 C 43.414062 51.652344 43.632812 51.644531 43.828125 51.644531 M 44.0625 53.417969 C 43.9375 53.417969 43.765625 53.417969 43.539062 53.433594 C 43.328125 53.433594 43.15625 53.441406 43.03125 53.464844 L 43.03125 56.769531 L 43.875 56.769531 C 44.539062 56.769531 45.039062 56.636719 45.375 56.386719 C 45.710938 56.121094 45.875 55.675781 45.875 55.050781 C 45.875 54.457031 45.710938 54.035156 45.375 53.792969 C 45.046875 53.542969 44.609375 53.417969 44.0625 53.417969 "/>
<path style=" stroke:none;fill-rule:evenodd;fill:rgb(97.647059%,97.647059%,97.647059%);fill-opacity:1;" d="M 18 12 L 24 12 L 24 18 L 18 18 Z M 18 12 "/>
<path style=" stroke:none;fill-rule:evenodd;fill:rgb(97.647059%,97.647059%,97.647059%);fill-opacity:1;" d="M 24 18 L 30 18 L 30 24 L 24 24 Z M 24 18 "/>
<path style=" stroke:none;fill-rule:evenodd;fill:rgb(97.647059%,97.647059%,97.647059%);fill-opacity:1;" d="M 18 24 L 24 24 L 24 30 L 18 30 Z M 18 24 "/>
<path style=" stroke:none;fill-rule:evenodd;fill:rgb(97.647059%,97.647059%,97.647059%);fill-opacity:1;" d="M 18 32 L 30 32 L 30 44 L 18 44 Z M 18 32 "/>
</g>
</svg>

<svg xmlns="http://www.w3.org/2000/svg" viewBox="0 0 64 64">
 <g>
  <path d="m 10.672 0 c -1.375 0 -2.672 1.355 -2.672 2.789 l 0 58.42 c 0 1.355 1.375 2.789 2.672 2.789 l 42.656 0 c 1.297 0 2.672 -1.434 2.672 -2.789 l 0 -43.21 l -18 -18 m -27.328 0" style="fill:#c19553;fill-opacity:1;stroke:none;fill-rule:nonzero"/>
  <path d="m 8 48 l 0 13.336 c 0 1.297 1.375 2.664 2.664 2.664 l 42.672 0 c 1.289 0 2.664 -1.367 2.664 -2.664 l 0 -13.336 m -48 0" style="fill:#000;fill-opacity:0.196;stroke:none;fill-rule:nonzero"/>
  <path d="m 42 18 l 14 14 l 0 -14 m -14 0" style="fill:#000;fill-opacity:0.196;stroke:none;fill-rule:nonzero"/>
  <path d="m 22.547 61.988 l -6.547 0 l 0 -10.227 l 2.086 0 l 0 8.539 l 4.461 0 l 0 1.688" style="fill:#fff;fill-opacity:1;stroke:none;fill-rule:nonzero"/>
  <path d="m 38 0 l 17.984 18 l -15.227 0 c -1.348 0 -2.758 -1.426 -2.758 -2.773 m 0 -15.227" style="fill:#fff;fill-opacity:0.392;stroke:none;fill-rule:nonzero"/>
  <path d="m 30.711 53.18 c -0.484 0.727 -0.922 1.406 -1.328 2.047 c -0.406 0.641 -0.781 1.25 -1.125 1.836 c -0.352 0.57 -0.68 1.125 -1 1.664 c -0.297 0.531 -0.594 1.055 -0.875 1.57 l 4.484 0 l 0 1.688 l -6.875 0 l 0 -1.18 c 0.25 -0.469 0.516 -0.969 0.797 -1.484 c 0.281 -0.523 0.594 -1.086 0.938 -1.68 c 0.352 -0.594 0.727 -1.242 1.133 -1.938 c 0.414 -0.688 0.867 -1.445 1.359 -2.258 l -4.01 0 l 0 -1.688 l 6.5 0 l 0 1.422" style="fill:#fff;fill-opacity:1;stroke:none;fill-rule:nonzero"/>
  <path d="m 18 0 l 6 0 l 0 6 l -6 0 m 0 -6" style="fill:#f9f9f9;fill-opacity:1;stroke:none;fill-rule:evenodd"/>
  <path d="m 34.2 56.863 c 0 0.5 0.016 0.969 0.055 1.406 c 0.039 0.43 0.117 0.805 0.234 1.125 c 0.125 0.32 0.289 0.57 0.5 0.758 c 0.219 0.188 0.5 0.281 0.859 0.281 c 0.352 0 0.633 -0.094 0.844 -0.281 c 0.227 -0.188 0.391 -0.438 0.508 -0.758 c 0.117 -0.336 0.203 -0.711 0.234 -1.141 c 0.047 -0.43 0.063 -0.891 0.063 -1.391 c 0 -0.492 -0.016 -0.953 -0.063 -1.383 c -0.031 -0.445 -0.117 -0.82 -0.234 -1.141 c -0.117 -0.32 -0.281 -0.57 -0.492 -0.758 c -0.211 -0.188 -0.5 -0.281 -0.859 -0.281 c -0.359 0 -0.641 0.094 -0.859 0.281 c -0.211 0.188 -0.375 0.445 -0.5 0.773 c -0.117 0.32 -0.195 0.695 -0.234 1.125 c -0.039 0.43 -0.055 0.891 -0.055 1.383 m -2.102 0 c 0 -1.758 0.328 -3.086 0.992 -3.977 c 0.664 -0.906 1.578 -1.352 2.758 -1.352 c 1.227 0 2.156 0.445 2.797 1.352 c 0.641 0.891 0.961 2.219 0.961 3.977 c 0 1.766 -0.328 3.094 -0.977 4 c -0.648 0.891 -1.57 1.336 -2.766 1.336 c -1.219 0 -2.156 -0.445 -2.805 -1.336 c -0.641 -0.906 -0.961 -2.234 -0.961 -4" style="fill:#fff;fill-opacity:1;stroke:none;fill-rule:nonzero"/>
  <path d="m 24 6 l 6 0 l 0 6 l -6 0 m 0 -6" style="fill:#f9f9f9;fill-opacity:1;stroke:none;fill-rule:evenodd"/>
  <path d="m 43.828 51.645 c 1.32 0 2.352 0.273 3.078 0.813 c 0.727 0.531 1.094 1.398 1.094 2.609 c 0 1.219 -0.367 2.109 -1.109 2.656 c -0.734 0.539 -1.766 0.813 -3.117 0.813 l -0.742 0 l 0 3.453 l -2.07 0 l 0 -10.09 c 0.203 -0.039 0.43 -0.078 0.68 -0.117 c 0.258 -0.031 0.516 -0.055 0.773 -0.063 c 0.258 -0.023 0.508 -0.039 0.758 -0.047 c 0.242 -0.016 0.461 -0.023 0.656 -0.023 m 0.234 1.773 c -0.125 0 -0.297 0 -0.523 0.016 c -0.211 0 -0.383 0.008 -0.508 0.031 l 0 3.305 l 0.844 0 c 0.664 0 1.164 -0.133 1.5 -0.383 c 0.336 -0.266 0.5 -0.711 0.5 -1.336 c 0 -0.594 -0.164 -1.016 -0.5 -1.258 c -0.328 -0.25 -0.766 -0.375 -1.313 -0.375" style="fill:#fff;fill-opacity:1;stroke:none;fill-rule:nonzero"/>
  <path d="m 18 12 l 6 0 l 0 6 l -6 0 m 0 -6" style="fill:#f9f9f9;fill-opacity:1;stroke:none;fill-rule:evenodd"/>
  <path d="m 24 18 l 6 0 l 0 6 l -6 0 m 0 -6" style="fill:#f9f9f9;fill-opacity:1;stroke:none;fill-rule:evenodd"/>
  <path d="m 18 24 l 6 0 l 0 6 l -6 0 m 0 -6" style="fill:#f9f9f9;fill-opacity:1;stroke:none;fill-rule:evenodd"/>
  <path d="m 18 32 l 12 0 l 0 12 l -12 0 m 0 -12" style="fill:#f9f9f9;fill-opacity:1;stroke:none;fill-rule:evenodd"/>
 </g>
</svg>
